X: 41848
T: Violet Tulloch
R: reel
M: 4/4
K: Gminor
B2Bc BFDF|B2Bc BFDF|B2Bc defd|cBAG F2GA|
BABc dBFD|EGcd e2dc|dFBd cFAc|1 B2BA Bddc:|2 B2BA B3f||
|:bBdf gAce|d2B2 B3f|acfa gc=eg|f2F2 F2FE|
(3DBf(3fBD (3EBg(3gBE|=efga b2fd|_edcB Afec|1 d2 B2 B3f:|2 d2 B2 Bddc||

